X:1
T:Calon Lân
T:John Hughes
T:Daniel James
%%score [ ( 1 2 ) ( 3 4 ) ]
L:1/8
Q:1/4=63
M:3/4
K:A
V:1 treble nm="Merched" snm="M"
V:2 treble 
V:3 bass nm="Bechgyn" snm="B"
V:4 bass 
V:1
"^Adagio" E A | c3 A B c | A2 E2 F G | A3 F d c | (c2 B2) E A | c3 A B c | A2 F2 A (G/F/) | %7
 E3 A A G | A4 || c A | e3 c B A | A2 G2 B c | d3 d c B | c4 E E | F3 F G G | A2 B2 A B | %16
 c3 A B (A/G/) | A4 |] %18
V:2
 C C | E3 C D E | E2 C2 D D | C3 D F E | E4 C E | E3 E E A | E2 D2 F (E/D/) | C3 E E E | E4 || %9
w: Nid wyn|go- fyn by- wyd|moe- thus, aur y|byd na'i ber- lau|mân Go- fyn|wyf am ga- lon|ha- pus, ca- lon _|on- est, ca- lon|lân.|
w: Pe dym-|u- nwn o- lud|by- dol, he- dyn|bu- an gan- ddo|sydd Go- lud|ca- lon lân, rin-|we- ddol, yn dwyn _|by- thol el- w|fydd.|
w: Hwyr a|bor- e fy ny-|mun- iad gwyd i'r|nef ad a- dain|cân Ar i|Dduw, er mwyn fy|Nghei- dwad, Ro- ddi _|i mi ga- lon|lân.|
 E E | A3 A G A | E2 E2 E A | G3 G A G | A4 E E | D3 D E E | E2 E2 C D | E3 E E E | E4 |] %18
w: |||||||||
w: Ca- lon|lân yn llawn dai-|o- ni, Te- cach|yw na'r li- li|dlos, Does ond|ca- lon lân all|ga- nu, Ca- nu'r|dydd a cha- nu'r|nos.|
w: |||||||||
V:3
 A, A, | A,3 A, A, A, | C2 A,2 A, B, | A,3 A, A, A, | (A,2 G,2) A, A, | A,3 C D E | %6
 (CA,) A,2 A, A, | A,3 C B, D | C4 || A, C | C3 E E E | C2 B,2 G, A, | (B,2 E) E E E | E4 A, A, | %14
 A,3 B, B, D | C2 B,2 A, A, | A,3 C (D/C/) B, | C4 |] %18
V:4
 A,, A,, | A,,3 A,, A,, A,, | A,,2 A,,2 D, B,, | F,3 D, B,, (C,/D,/) | E,4 E, C, | %5
 A,,3 A,, A,, A,, | (A,,C,) D,2 D, D, | E,3 E, E, E, | A,4 || A, A, | A,3 A,, B,, C, | %11
 E,2 E,2 E, E, | E,3 E, E, E, | A,4 C, C, | D,3 B,, E, E, | A,2 G,2 F, =F, | E,3 E, E, E, | A,,4 |] %18

